gfx/white/search.svg

<svg xmlns="http://www.w3.org/2000/svg">
    <g style="fill:none;fill-rule:evenodd;stroke:none;stroke-width:1">
        <path d="m 15.5,14 -0.79,0 -0.28,-0.27 c 0.98,-1.14 1.57,-2.62 1.57,-4.23 0,-3.59 -2.91,-6.5 -6.5,-6.5 -3.59,0 -6.5,2.91 -6.5,6.5 0,3.59 2.91,6.5 6.5,6.5 1.61,0 3.09,-0.59 4.23,-1.57 l 0.27,0.28 0,0.79 5,5 1.49,-1.49 -5,-5 z m -6,0 c -2.49,0 -4.5,-2.01 -4.5,-4.5 0,-2.49 2.01,-4.5 4.5,-4.5 2.49,0 4.5,2.01 4.5,4.5 0,2.49 -2.01,4.5 -4.5,4.5 z" fill="#fff" />
        <g transform="translate(6.5,6.5)" fill="#fff">
            <rect x="2" y="0" width="2" height="6" />
            <rect x="0" y="2" width="6" height="2" />
        </g>
    </g>
</svg>

<svg fill="#fff" height="24" viewBox="0 0 24 24" width="24" xmlns="http://www.w3.org/2000/svg">
    <path d="M15.5 14h-.79l-.28-.27C15.41 12.59 16 11.11 16 9.5 16 5.91 13.09 3 9.5 3S3 5.91 3 9.5 5.91 16 9.5 16c1.61 0 3.09-.59 4.23-1.57l.27.28v.79l5 4.99L20.49 19l-4.99-5zm-6 0C7.01 14 5 11.99 5 9.5S7.01 5 9.5 5 14 7.01 14 9.5 11.99 14 9.5 14z"/>
    <path d="M0 0h24v24H0z" fill="none"/>
</svg>
